!!!OTL: Lieblich gesellet
!!!ARE: Europa, Mitteleuropa, Deutschland
!!!SCT: A0131
!!!YEM: Copyright 1995, estate of Helmut Schaffrath.
**kern
*ICvox
*Ivox
*M3/2
*k[b-]
*F:
{2f
=1
1a
2a
=2
1a
2f
=3
1cc
2dd
=4
2cc
1dd
=5
[1.cc
=6
1cc]}
{2dd
=7
1cc
2b-
=8
2a
1g
=9
1f}
{2f
=10
1a
2a
=11
1a
2f
=12
1cc
2dd
=13
2cc
1dd
=14
[1.cc
=15
1cc]}
{2dd
=16
1cc
2b-
=17
2a
1g
=18
1f}
{2ff
=19
2ff
2ff
2ee
=20
2ee
2ff
2dd
=21
1cc
2ff
=22
2ee
2gg
2ff
=23
2ee
1dd
=24
[1.cc
=25
1cc]}
{2dd
=26
1cc
2b-
=27
2a
1g
=28
1f}
==
!!!AGN: Romanze, Ballade, Lied
!! 68 Lieder. Nuernberg gedr. von Berg und Newber (c. 1542) No. 29.
!!    Und Forster II. 1540 No. 14.
!!!ONB: ESAC (Essen Associative Code) Database: ALTDEU
!!!AMT: simple triple
!!!AIN: vox
!!!EED: Helmut Schaffrath
!!!EEV: 1.0
*-
